!!!COM: Palestrina, Giovanni Perluigi da
!!!OPR: Missa Nigra sum
!!!OMD: Sanctus
!!!OTL: Hosanna
**kern	**kern	**kern	**kern	**kern
*Ibass	*Itenor	*Itenor	*Icalto	*Icant
!Bassus	!Tenor 2	!Tenor 1	!Altus	!Cantus
*clefF4	*clefGv2	*clefGv2	*clefG2	*clefG2
*k[b-]	*k[b-]	*k[b-]	*k[b-]	*k[b-]
*D:aeo	*D:aeo	*D:aeo	*D:aeo	*D:aeo
*M4/2	*M4/2	*M4/2	*M4/2	*M4/2
=78	=78	=78	=78	=78
0r	0r	1d	0r	0r
.	.	[1g	.	.
=79	=79	=79	=79	=79
0r	1r	2g]	0r	1a
.	.	2f#	.	.
.	2r	2g	.	[1dd
.	2G	2g	.	.
=80	=80	=80	=80	=80
1r	1.g	1e-	0r	2dd]
.	.	.	.	2cc
1D	.	1d	.	2dd
.	2f#	.	.	2dd
=81	=81	=81	=81	=81
1.d	2g	1G	1r	1b-
.	2g	.	.	.
.	1e	1A	2r	1a
2c#	.	.	2e	.
=82	=82	=82	=82	=82
2d	0d	1f	1.a	2r
2d	.	.	.	2a
1B-	.	2f	.	[1dd
.	.	4e	2g	.
.	.	4d	.	.
=83	=83	=83	=83	=83
1A	2r	1e	2a	2dd]
.	2A	.	2a	2cc#
1D	[1d	1r	1f	2dd
.	.	.	.	2dd
=84	=84	=84	=84	=84
2G	2d]	2r	1e	2b-
2A	2c#	2e	.	2.a
1D	2d	[1a	1f	.
.	.	.	.	4g
.	2d	.	.	4f
.	.	.	.	4e
=85	=85	=85	=85	=85
0r	1B-	2a]	2f	2d
.	.	2g	1d	2dd
.	[1A	2a	.	2ff
.	.	2a	2c#	[2ee
=86	=86	=86	=86	=86
0r	1A]	1f	2r	2ee]
.	.	.	2A	1dd
.	1A	1e	[1a	.
.	.	.	.	2cc#
=87	=87	=87	=87	=87
1D	1.d	2r	2a]	0dd
.	.	2A	2f	.
[1G	.	1B-	[1g	.
.	2d	.	.	.
=88	=88	=88	=88	=88
2G]	2e-	2B-	2g]	0r
2F#	2.d	2A	2a	.
2G	.	2B-	[1g	.
.	4c	.	.	.
2G	4B-	[2d	.	.
.	4A	.	.	.
=89	=89	=89	=89	=89
1E-	1G	4d]	1g]	1r
.	.	8c	.	.
.	.	8B-	.	.
.	.	2c	.	.
1D	1A	1d	1f	1a
=90	=90	=90	=90	=90
0r	1G	1B-	2r	1.dd
.	.	.	2d	.
.	1r	[1e-	[1g	.
.	.	.	.	4cc
.	.	.	.	4b-
=91	=91	=91	=91	=91
0r	0r	2e-]	2g]	2cc
.	.	2d	2f#	2dd
.	.	2e-	2g	2cc
.	.	2e-	2g	[2b-
=92	=92	=92	=92	=92
1r	1F	1c	2.f	2b-]
.	.	.	.	2a
.	.	.	4e-	.
1BB-	[1B-	2B-	4d	[1b-
.	.	.	4c	.
.	.	2d	2B-	.
=93	=93	=93	=93	=93
1.E-	2B-]	1.g	2.G	0b-]
.	2B-	.	.	.
.	.	.	4A	.
.	2G	.	1B-	.
2D	2d	2f	.	.
=94	=94	=94	=94	=94
2E-	4c	2g	0r	1r
.	4B-	.	.	.
2E-	1B-	2g	.	.
1C	.	1e-	.	1cc
.	2A	.	.	.
=95	=95	=95	=95	=95
1BB-	2.B-	1.d	1f	1.ff
.	4A	.	.	.
1r	1G	.	[1b-	.
.	.	4c	.	2ee
.	.	4B-	.	.
=96	=96	=96	=96	=96
2r	2F	1c	2b-]	2ff
2F	2.f	.	2a	2ff
[1B-	.	1d	2b-	[1dd
.	4e-	.	.	.
.	[2d	.	2b-	.
=97	=97	=97	=97	=97
2B-]	4d]	0r	2.f	2dd]
.	4B-	.	.	.
2A	2c	.	.	2cc
.	.	.	4a	.
2B-	1d	.	4g	[1b-
.	.	.	4f	.
2B-	.	.	[2f	.
=98	=98	=98	=98	=98
1G	1B-	1r	2f]	1b-]
.	.	.	2e	.
2.F	2c	2r	1f	[1a
.	2A	2c	.	.
4E	.	.	.	.
=99	=99	=99	=99	=99
4D	1.d	1.f	1r	0a]
4E	.	.	.	.
4F	.	.	.	.
4G	.	.	.	.
1A	.	.	2r	.
.	2c#	2e	2e	.
=100	=100	=100	=100	=100
0r	2d	2f	1.a	2r
.	2d	2f	.	2a
.	1B-	1d	.	[1dd
.	.	.	2g	.
=101	=101	=101	=101	=101
2r	1A	2e	2a	2dd]
2A	.	2.a	2a	2cc#
[1d	2r	.	2f	4dd
.	.	4g	.	4cc#
.	2a	4f	2d	4dd
.	.	4e	.	4ee
=102	=102	=102	=102	=102
2d]	2a	2d	2r	2ff
2c#	2.a	2e	2A	2ee
2d	.	2f	[1a	2dd
.	4g	.	.	.
2d	4f	[2d	.	[2ff
.	4e	.	.	.
=103	=103	=103	=103	=103
1B-	1d	2d]	2a]	2ff]
.	.	2G	2g	4ee
.	.	.	.	4dd
1A	1e	2r	2a	4cc#
.	.	.	.	2dd
.	.	2A	2e	.
.	.	.	.	4cc#
=104	=104	=104	=104	=104
2.D	[0d	2A	2.f	[0dd
.	.	2.d	.	.
4E	.	.	4g	.
2F	.	.	2a	.
.	.	4c	.	.
[2G	.	4B-	[2b-	.
.	.	4A	.	.
=105	=105	=105	=105	=105
2G]	1d_	2G	2b-]	1dd_
2F#	.	2A	2a	.
1G	1d_	1B-	1g	1dd_
=106	=106	=106	=106	=106
0D	0d]	0A	0f#	0dd]
==	==	==	==	==
*-	*-	*-	*-	*-
!!!CDT: 1525/^1526/-1594/2/2
!!!OCY: Italia
!!!AGN: Mass (Parody)
!!!AST: renaissance, vocal
!!!ASW: Motet 1532 (Lhéritier)
!!!PWK: Masses, Book 5
!!!RNB: Cadence finals: G,A
!!!YOR: Le Opere Complete, v. 15, p. 89
!!!YOO: Rome, Italy: Fratelli Scalera
!!!END: 1992//
!!!EED: John Miller
!!!YEC: Copyright 2000, John Miller
!!!YEN: United States of America
!!!YEM: Rights to all derivative electronic formats reserved.
!!!YEM: Refer to licensing agreement for further details.
!!!YEM: This file must be accompanied by the licensing agreement.
!!!YEM: A copy of the licensing agreement may be found at http://www.music-cog.ohio-state.edu/HumdrumDatabases/Palestrina/license.txt
!!!EMD: converted to Humdrum by Bret Aarden
